X:25
T:Cerdd Dy'Calan - New Years Day Song
M:6/8
L:1/8
Q:120
C:Trad. arr. J.T.
R:Processional
K:D
D2 E F2 G | A3 A2 G | F2 A G2 F | E3-E2 A | G2 F E2 F | D3 D2 D |
F2 F E2 F | D3-D2 D :|| AFD AFD | AFD AA2 | AA2 AA2 | A3-A3 ||
